printrun/assets/toolbar/reset_w.svg

<?xml version="1.0" encoding="UTF-8"?>
<svg id="icon" xmlns="http://www.w3.org/2000/svg" width="128" height="128" viewBox="0 0 128 128">
  <path d="M118.465,64.511c0,15.102-5.881,29.293-16.56,39.962-7.763,7.764-17.531,13.068-28.23,15.325-.638.142-1.265.202-1.893.202-4.211,0-7.996-2.935-8.897-7.227-1.042-4.919,2.095-9.758,7.025-10.79,7.237-1.539,13.847-5.132,19.12-10.395,7.227-7.227,11.215-16.843,11.215-27.076,0-21.114-17.177-38.292-38.292-38.292-2.672,0-5.355.281-7.966.83-6.906,1.453-13.205,4.681-18.406,9.684-.402.386-.4,1.036-.006,1.431l6.053,6.062c.425.425.628,1.002.618,1.599-.02.547-.263,1.083-.658,1.468-.375.354-.86.577-1.407.648l-27.37,2.085c-1.852.142-3.391-1.387-3.269-3.239l1.893-27.4c.061-.597.273-1.022.648-1.397.223-.213.486-.385.81-.486.81-.273,1.731-.111,2.318.486l5.969,5.969c.392.392,1.027.381,1.417-.013,8.337-8.41,17.233-12.516,27.636-14.722,3.847-.816,7.794-1.225,11.721-1.225,31.166,0,56.511,25.345,56.511,56.511Z" style="fill: #dfe2e5;"/>
</svg>

<?xml version="1.0" encoding="UTF-8" standalone="no"?>
<!DOCTYPE svg PUBLIC "-//W3C//DTD SVG 1.1//EN" "http://www.w3.org/Graphics/SVG/1.1/DTD/svg11.dtd">
<svg width="100%" height="100%" viewBox="0 0 128 128" version="1.1" xmlns="http://www.w3.org/2000/svg" xmlns:xlink="http://www.w3.org/1999/xlink" xml:space="preserve" xmlns:serif="http://www.serif.com/" style="fill-rule:evenodd;clip-rule:evenodd;stroke-linejoin:round;stroke-miterlimit:2;">
    <path d="M118.46,64.51C118.46,79.61 112.58,93.8 101.9,104.47C94.14,112.23 84.37,117.54 73.67,119.79C73.03,119.93 72.4,119.99 71.78,119.99C67.57,119.99 63.78,117.05 62.88,112.76C61.84,107.84 64.98,103 69.9,101.97C77.14,100.43 83.75,96.84 89.02,91.57C96.25,84.34 100.24,74.73 100.24,64.49C100.24,43.38 83.06,26.2 61.95,26.2C59.28,26.2 56.6,26.48 53.98,27.03C46.75,28.56 37.613,34.497 34.85,37.43L41.62,44.21C42.05,44.64 42.25,45.21 42.24,45.81C42.22,46.36 41.98,46.89 41.58,47.28C41.21,47.63 40.72,47.86 40.17,47.93L12.8,50.02C10.95,50.16 9.41,48.63 9.53,46.78L11.42,19.38C11.48,18.78 11.69,18.36 12.07,17.98C12.29,17.77 12.56,17.6 12.88,17.49C13.69,17.22 14.61,17.38 15.2,17.98L21.88,24.66L21.99,24.55C29.75,16.78 39.52,11.47 50.22,9.22C54.07,8.4 58.01,8 61.94,8C93.11,8 118.45,33.35 118.45,64.51L118.46,64.51Z" style="fill:white;fill-rule:nonzero;"/>
</svg>
